X:1
T:Title
%%score { ( 1 3 4 ) | ( 2 5 ) }
L:1/8
Q:1/4=100
M:4/4
K:D
V:1 bass nm="Grand Piano"
V:3 bass 
V:4 bass 
V:2 bass 
V:5 bass 
V:1
 [F,D]2 [A,CE]2[K:treble] [A,DF]2 [B,DG]2 | [A,EA]2 [A,CA]2 [A,DF]2 [F,D]2 | %2
w: J.~A.~Freylinghausen * * *||
 [DB]2 [A,DA]2 [B,G]-[B,EG] F2 | E4 z4 | F2 ED [DE]2 [CA]2 | [FB]2 cd [Ec]2 [EA]2 | %6
w: ||||
 [Fd]2 [Ec]2 [DB]2 [A,EA]2 | A2- [B,EA]2 [CEA]4 | [DGB]2 .[CEA]2 [DF]2 [B,DG]2 | %9
w: |||
 [A,DA]2 .[B,DG]2[K:bass] [E,DE]2 [A,CE]2 | [F,D]2[K:treble] [A,CE]2 [A,DF]2 [B,DG]2 | %11
w: ||
 [A,EA]2 [EB]2 [A,CA]4 | E4 z4 | [A,DF]2[K:bass] [A,CE]2 [F,D]4 |] %14
w: |||
V:2
 D,2 A,,2 D,2 B,,2 | C,2 A,,2 D,2 D,2 | G,2 F,2 B,,C, [D,A,D]2 | [A,D]2 [A,,A,]2 [D,F,]4 | D4 z4 | %5
 [D,A,]2 [E,^G,E]2 [A,,A,]2 [C,A,]2 | [D,A,]2 [A,,A,]2 [B,,^G,]2 C,2 | D,2 z ^G A,,4 | %8
 G,,2 z G B,,2 G,,2 | F,,2 z F A,,2 A,,2 | B,,2 A,,2 D,2 B,,2 | C,2 [E,^G,]2 A,,4 | %12
 E,2 C,2 D,2 G,,2 | A,,2 A,,2 D,4 |] %14
V:3
 x4[K:treble] x4 | x8 | z4 .D2 z2 | z2 z E D4 | x8 | x8 | x8 | [DF]2 z2 z4 | x8 | x4[K:bass] x4 | %10
 x2[K:treble] x6 | x8 | [B,G]2 [A,A]2 [A,DF]2 [B,DG]2 | x2[K:bass] x6 |] %14
V:4
 x4[K:treble] x4 | x8 | x8 | z2 C2 z4 | x8 | x8 | x8 | x8 | x8 | x4[K:bass] x4 | x2[K:treble] x6 | %11
 x8 | x8 | x2[K:bass] x6 |] %14
V:5
 x8 | x8 | x8 | x8 | [D,A,]2 [B,,^G,]2 [A,,A,]2 [F,A,]2 | x8 | x8 | z2 E,2 z4 | z2 A,,2 z4 | %9
 z2 G,,2 z4 | x8 | x8 | x8 | x8 |] %14

